assets/Logo/MB--Logo--Geo--CircleCanvas--Blue.svg

<svg height="600" viewBox="0 0 600 600" width="600" xmlns="http://www.w3.org/2000/svg"><g fill="none" fill-rule="evenodd"><path d="m0 0h600v600h-600z" fill="#1c68f3"/><circle cx="300" cy="300" fill="#1c68f3" r="300"/><path d="m480 230v100h-300v.001l-12.907363.000293c13.6612 60.675936 67.877706 105.998707 132.679911 105.998707 53.574191 0 99.91317-30.977625 122.082198-75.998136l58.145254-.000864v83.999c0 19.882251-16.117749 36-36 36h-288c-19.882251 0-36-16.117749-36-36v-214zm-92.673507 130.00167c-19.091757 27.912627-51.183733 46.229933-87.553945 46.229933s-68.462188-18.317306-87.553945-46.229933zm-164.326493-106.00167c-28.211891 0-51.551244 20.861818-55.432937 48.000334l30.686759.000209c3.374064-10.445337 13.177814-18.000543 24.746178-18.000543s21.372114 7.555206 24.746178 18.000543l30.686759-.000209c-3.881693-27.138516-27.221046-48.000334-55.432937-48.000334zm154 0c-28.211891 0-51.551244 20.861818-55.432937 48.000334l30.686759.000209c3.374064-10.445337 13.177814-18.000543 24.746178-18.000543s21.372114 7.555206 24.746178 18.000543l30.686759-.000209c-3.881693-27.138516-27.221046-48.000334-55.432937-48.000334zm67-134c19.882251 0 36 16.117749 36 36v44h-360v-44c0-19.882251 16.117749-36 36-36z" fill="#fff"/></g></svg>

<?xml version="1.0" encoding="UTF-8"?>
<svg width="600px" height="600px" viewBox="0 0 600 600" version="1.1" xmlns="http://www.w3.org/2000/svg" xmlns:xlink="http://www.w3.org/1999/xlink">
    <!-- Generator: Sketch 57.1 (83088) - https://sketch.com -->
    <title>MB--Logo--Geo--CircleCanvas--Blue</title>
    <desc>Created with Sketch.</desc>
    <g id="MB--Logo--Geo--CircleCanvas--Blue" stroke="none" stroke-width="1" fill="none" fill-rule="evenodd">
        <rect fill="#1C68F3" x="0" y="0" width="600" height="600"></rect>
        <g id="Group">
            <circle id="Oval" fill="#1C68F3" cx="300" cy="300" r="300"></circle>
            <path d="M480,230 L480,330 L180,330 L180,330.001 L167.092637,330.001293 C180.753837,390.677229 234.970343,436 299.772548,436 C353.346739,436 399.685718,405.022375 421.854746,360.001864 L421.854746,360.001864 L480,360.001 L480,444 C480,463.882251 463.882251,480 444,480 L156,480 C136.117749,480 120,463.882251 120,444 L120,230 L480,230 Z M387.326493,360.00167 C368.234736,387.914297 336.14276,406.231603 299.772548,406.231603 C263.402336,406.231603 231.31036,387.914297 212.218603,360.00167 L212.218603,360.00167 Z M223,254 C194.788109,254 171.448756,274.861818 167.567063,302.000334 L167.567063,302.000334 L198.253822,302.000543 C201.627886,291.555206 211.431636,284 223,284 C234.568364,284 244.372114,291.555206 247.746178,302.000543 L247.746178,302.000543 L278.432937,302.000334 C274.551244,274.861818 251.211891,254 223,254 Z M377,254 C348.788109,254 325.448756,274.861818 321.567063,302.000334 L321.567063,302.000334 L352.253822,302.000543 C355.627886,291.555206 365.431636,284 377,284 C388.568364,284 398.372114,291.555206 401.746178,302.000543 L401.746178,302.000543 L432.432937,302.000334 C428.551244,274.861818 405.211891,254 377,254 Z M444,120 C463.882251,120 480,136.117749 480,156 L480,200 L120,200 L120,156 C120,136.117749 136.117749,120 156,120 L444,120 Z" id="maskbook-icon--book--black" fill="#FFFFFF"></path>
        </g>
    </g>
</svg>
